**kern	**kern	**dynam
*part1	*part1	*part1
*staff2	*staff1	*
*I"Piano	*	*
*clefF4	*clefG2	*
*k[f#c#]	*k[f#c#]	*
=1	=1	=1
8AAA 8AA	12A'L	.
.	12g'	.
8r	.	.
.	12c#'J	.
8AA 8E 8G	12a'L	.
.	12g'	.
8r	.	.
.	12c#'J	.
=	=	=
8AAA 8AA	12A'L	.
.	12f#'	.
8r	.	.
.	12d'J	.
8AA 8D 8F#	12a'L	.
.	12f#'	.
8r	.	.
.	12d'J	.
=	=	=
8AAA 8AA	12A'L	.
.	12g'	.
8r	.	.
!	!LO:TX:b:i:t=cresc.	!
.	12c#'J	.
8AA 8E 8G	12a'L	.
.	12g'	.
8r	.	.
.	12c#'J	.
=	=	=
8AAA 8AA	12A'L	.
.	12f#'	.
8r	.	.
.	12d'J	.
8AA 8D 8F#	12a'L	.
.	12f#'	.
8r	.	.
.	12d'J	.
=	=	=
8AAA 8AA	12A'L	.
.	12g'	.
8r	.	.
.	12e'J	.
!	!LO:TX:b:i:t=cédez	!
8AA 8C# 8G	8a	.
8r	8r	.
=	=	=
!	!	!LO:DY:a
2GG#X 2D 2Fn	(12BL	f
.	12d	.
.	12fnJ	.
.	12bL	.
.	12dd	.
.	12ffnJ	.
=	=	=
!	!LO:TX:b:i:t=dim.	!
2G#X 2d 2fn	12bbL	.
.	12ffn	.
.	12ddJ	.
.	12bL	.
.	12fn	.
.	12dJ)	.
=	=	=
*-	*-	*-
!!!system-decoration: {(s1,s2)}
